X:1
T:Kyrie Eleison (Lord, Have Mercy)
C:Ancient Greek, pre-4th century
S:Traditional Lutheran liturgy; public domain
M:C
L:1/4
K:C
%% Kyrie (three-fold)
G G G G | G G E2 | G G G G | G G E2 | G G G G | c B A G | G4 ||
%% Christe (three-fold)
E E E E | E E D2 | E E E E | E E D2 | E E E E | G F E D | E4 ||
%% Kyrie (three-fold)
G G G G | G G E2 | G G G G | G G E2 | G G G G | c B A G | G4 )

## Musiquik
&0VVVV.VVd.VVVV.VVd.VVVV.YXWV.v)TTTT.TTc.TTTT.TTc.TTTT.VUTS.t)VVVV.VVd.VVVV.VVd.VVVV.YXWV.v

#Lyrics
Lord, have mercy; Lord, have mercy; Lord, have mercy. Christ, have mercy; Christ, have mercy; Christ, have mercy. Lord, have mercy; Lord, have mercy; Lord, have mercy.

#Citations and References

Words: Ancient Greek liturgical text, pre-4th century; public domain.
Music: 'Kyrie' Traditional Lutheran chant; ancient, public domain.
Setting: Lutheran Service Book (LSB), Divine Service; traditional.
copyright: public domain.

https://openhymnal.org
